X: 190
T: O'Mahony's frolics
C: anon.
O: Ireland
B: Francis O'Neill: "The Dance Music of Ireland" (1907) no. 190
R: Double jig
Z: Transcribed by Frank Nordberg - http://www.musicaviva.com
F: http://www.musicaviva.com/abc/tunes/ireland/oneill-1001/oneill-1001-019
0.abc
M: 6/8
L: 1/8
K: D
G|F2D DFD|dAF (AF)D|(E/F/G)(E C)EG|cGE CEG|F2D DFD|dA(F AF)D|GBG E(FG|AF)
D D2::g|f2d dfd|af(d de)f|
e2c cec|gec (ef)g|[1 f2d dfd|afd (ef)g|fdB Ad(e|f)dd d2:|[2 afa geg|fdf e
cA|GBG EF(G|A)FD D2|]
W:
W:
W: From Musica Viva - http://www.musicaviva.com
W: the Internet center for free sheet music downloads.


